img/subtract-14.svg

<svg fill="none" height="57" viewBox="0 0 57 57" width="57" xmlns="http://www.w3.org/2000/svg"><path clip-rule="evenodd" d="m21.4665.120989c-.5588-.1497092-1.1549.010028-1.5639.419036l-19.397005 19.396975c-.4090122.409-.5687494 1.0052-.4190407 1.5639l7.0997857 26.4968c.14971.5587.58612.9951 1.14484 1.1448l26.49682 7.0998c.5587.1497 1.1548-.01 1.5638-.419l19.397-19.397c.409-.409.5688-1.0052.4191-1.5639l-7.0998-26.49678c-.1497-.55872-.5861-.99513-1.1449-1.14484zm23.3962 23.677311c-2.5457-9.5007-12.3114-15.13892-21.8121-12.5932-9.5008 2.5457-15.13899 12.3113-12.5933 21.8121 2.5458 9.5008 12.3114 15.139 21.8122 12.5933 9.5007-2.5458 15.1389-12.3114 12.5932-21.8122z" fill="#fff500" fill-rule="evenodd"/></svg>

<svg width="57" height="57" viewBox="0 0 57 57" fill="none" xmlns="http://www.w3.org/2000/svg">
<path fill-rule="evenodd" clip-rule="evenodd" d="M21.4665 0.120989C20.9077 -0.0287202 20.3116 0.131017 19.9026 0.540025L0.505595 19.937C0.0965828 20.346 -0.0631544 20.9422 0.0865543 21.5009L7.18634 47.9977C7.33605 48.5564 7.77246 48.9928 8.33118 49.1425L34.828 56.2423C35.3867 56.392 35.9828 56.2323 36.3918 55.8233L55.7888 36.4263C56.1978 36.0173 56.3576 35.4211 56.2079 34.8624L49.1081 8.36562C48.9584 7.8069 48.522 7.37049 47.9632 7.22078L21.4665 0.120989ZM44.8627 23.7983C42.317 14.2976 32.5513 8.65938 23.0506 11.2051C13.5498 13.7508 7.91161 23.5164 10.4573 33.0172C13.0031 42.518 22.7687 48.1562 32.2695 45.6105C41.7702 43.0647 47.4084 33.2991 44.8627 23.7983Z" fill="#FFF500"/>
</svg>
